!!!!SEGMENT: pl-wnifc--6736-n_katski-apolinary--l-isolement-meditation.krn
!!!cenid: 18xx:3979
!!!COM: Kątski, Apolinary
!!!COM-rismID: pe30020040
!!!CDT: 1825-1879
!!!CNT: Polish
!!!OTL: L’isolement/Méditation
!!!PDT:
!!!AGN:
!!!SMS-siglum: PL-Wnifc
!!!SMS-shelfmark: 6736/n
!!!SMS-shelfwork: W
!!!SMS-variant:
!!!SMS-altvar:
!!!NIFC-rismSourceID: 1001157997
!!!NIFC-rismChildID: 1001158006
!!!NIFC-islandoraID: nifc:213460
!!!URL-pdf-islandora: https://repozytorium.nifc.pl/islandora/object/nifc%3A213460/datastream/PDF/view
!!!URL-scan: https://polish.musicsources.pl/pl/lokalizacje/galeria/klocki-introligatorskie/688 @EN{Scan on Polish Music Sources Website} @PL{Skany w portalu Dziedzictwo Muzyki Polskiej w otwartym dostępie}
!!!ONB-nifc: UWAGA: skany 16-18
!!!AIN: 2 piano
!!!key: f#
**kern	**kern	**fing	**dynam
*part2	*part1	*	*part1
*staff2	*staff1	*	*
*I"PIANO.	*I"PIANO.	*	*
*I'pf	*I'pf	*	*
*ICklav	*ICklav	*	*
*Ipiano	*Ipiano	*	*
*clefF4	*clefG2	*	*
*k[f#c#g#]	*k[f#c#g#]	*	*
*f#:	*f#:	*	*
*M6/8	*M6/8	*	*
=1	=1	=1	=1
*ped	*	*	*
!	!LO:TX:b:B:t=con melancolia	!	!
!	!LO:TX:a:B:t=  (80 = [quarter].)	!	!LO:HP:b=2
(8FF#\L	2.r	.	<[
8C#\	.	.	.
8F#\J	.	.	.
8A\L	.	.	.
8c#\	.	.	.
8a\J	.	.	.
=2	=2	=2	=2
!	!	!	!LO:HP:b=2
8f#\L	2.r	.	>]
8d\	.	.	.
8c#\J	.	.	.
8A\L	.	.	.
8F#\	.	.	.
8C#\J)	.	.	.
*Xped	*	*	*
=3	=3	=3	=3
8FF#\L	4.cc#\ 4.ccc#	.	pp
8C#\	.	.	.
8F#\J	.	.	.
8A\L	[>4.dd^<\ [4.ddd	.	.
8F#\	.	.	.
8C#\J	.	.	.
=4	=4	=4	=4
8FF#\L	4dd\] 4ddd]	.	.
8C#\	.	.	.
8F#\J	8cc#\ 8ccc#	.	.
8A\L	8f#\L 8ff#	.	<
8F#\	8g#\ 8gg#	.	.
8C#\J	8a\J 8aa	.	[[
!!LO:LB:g=original	!	!
=5	=5	=5	=5
*ped	*	*	*
8FF#\L	((<2.a^<\ 2.aa	.	.
8D\	.	.	.
8E#X\J	.	.	.
8B^\L	.	.	.
8E#\	.	.	.
8D\J	.	.	.
*Xped	*	*	*
=6	=6	=6	=6
8FF#\L	2.g#\)) 2.gg#	.	p
8D\	.	.	.
8E#X\J	.	.	.
8B\L	.	.	.
8E#\	.	.	.
8D\J	.	.	.
=7	=7	=7	=7
8FF#\L	8cc#\L 8ccc#	.	<
8C#\	8dd\ 8ddd	.	.
8F#\J	8cc#\J 8ccc#	.	.
8A\L	[>4.aa\ [4.aaa	.	[
8F#\	.	.	.
8C#\J	.	.	.
=8	=8	=8	=8
8FF#\L	8aa\L] 8aaa]	.	>
8C#\	8ff#\ 8fff#	.	.
8F#\J	16cc#\L 16ccc#	.	.
.	16a\JJ 16aa	.	.
!	!LO:TUP:a	!	!
8B\L	24f#\LL 24ff#	.	]
.	24g#\ 24gg#	.	.
.	24f#\JJ 24ff#	.	.
8F#\	16e#X\LL 16ee#X	.	<
.	16f#\ 16ff#	.	.
8C#\J	16g#\ 16gg#	.	.
.	16a\JJ 16aa	.	[[
!!LO:LB:g=original	!	!
=9	=9	=9	=9
*	*^	*	*
*ped	*	*	*	*
8FF#\L	((2.a^\ 2.aa	8ra	.	.
8D\	.	8ra	.	.
8E#X\J	.	(32b/LLL	.	>
.	.	32cc#/	.	.
.	.	32b/	.	.
.	.	32cc#/JJJ	.	.
8B\L	.	4dd/)	.	.
8E#\	.	.	.	.
8D\J	.	8ra	.	]
*Xped	*	*	*	*
*	*v	*v	*	*
=10	=10	=10	=10
8FF#\L	2.g#\)) 2.gg#	.	p
8GG#\	.	.	.
(32BB\LL	.	.	.
32C#\	.	.	.
32BB\	.	.	.
32C#\JJJ)	.	.	.
8D\L	.	.	.
8E#X\	.	.	.
8B\J	.	.	.
=11	=11	=11	=11
8FF#\L	[>4.cc#\ [4.ccc#	.	<
8D\	.	.	.
8F#\J	.	.	.
8A\L	8cc#\L] 8ccc#]	.	.
8F#\	8b#X\ 8bb#X	.	.
8C#\J	8cc#\J 8ccc#	.	.
=12	=12	=12	=12
*ped	*	*	*
8FF#\L	4.dd\ 4.ddd	.	.
8D\	.	.	.
*Xped	*	*	*
8A\J	.	.	.
*ped	*	*	*
8FFn\L	4.dd#X\ 4.ddd#X	.	[[
8Cn\	.	.	.
8A\J	.	.	.
*Xped	*	*	*
!!LO:LB:g=original	!	!
=13	=13	=13	=13
*ped	*	*	*
8EE\L	(4ff#\ 4fff#	.	f
8C#\	.	.	.
8E\J	8ee\ 8eee	.	.
8A\L	4dd\ 4ddd	.	.
8E\	.	.	.
8C#\J	8cc#\) 8ccc#	.	.
*Xped	*	*	*
=14	=14	=14	=14
*ped	*	*	*
8EE\L	16a#X\LL 16aa#X	.	.
.	16b\JJ 16bb	.	.
8D\	4gg#^\ 4ggg#	.	.
8E\J	.	.	.
!	!LO:TX:b:B:t=rall&colon;	!	!
8G#\L	(8ff#\L 8fff#	.	>
8E\	8dd\ 8ddd	.	.
8D\J	8b\J 8bb	.	]]
*Xped	*	*	*
=15	=15	=15	=15
8AAA/ 8AA	4.a\) 4.aa	.	.
8C#\L	.	.	.
8E\J	.	.	.
8A\L	4r	.	.
8E\	.	.	.
8C#\J	8cc#\	.	p
=16	=16	=16	=16
8EE\L	(8a#X\L	.	.
8D\	8b\	.	.
8E\J	8gg#^\J	.	.
8B\L	8ff#\L	.	.
8E\	8dd\	.	.
8D\J	8b\J	.	.
=17	=17	=17	=17
8AA\L	4.a\)	.	.
8C#\	.	.	.
8E\J	.	.	.
8A\L	4r	.	.
8E\	.	.	.
8C#\J	8r	.	.
!!LO:LB:g=original	!	!
=18	=18	=18	=18
!	!	!	!LO:DY:b=2
8CC#\L	4.G#^>/	.	pp
8C#\	.	.	.
8E#X\J	.	.	.
!	!LO:TX:b:B:t=rall&colon;	!	!
8B\L	4d^>/	.	.
8E#\	.	.	.
8C#;\J	8c#^>;</	.	.
=19	=19	=19	=19
8FFF#/ 8FF#	4.cc#\ 4.ccc#	.	.
8C#\L	.	.	.
8F#\J	.	.	.
8A\L	[>4.dd^<\ [4.ddd	.	.
8F#\	.	.	.
8C#\J	.	.	.
=20	=20	=20	=20
8FF#\L	4dd\] 4ddd]	.	.
8C#\	.	.	.
8F#\J	8cc#\ 8ccc#	.	.
8A\L	8f#\L 8ff#	.	<
8F#\	8g#\ 8gg#	.	.
8C#\J	16r	.	.
.	16a\Jk 16aa	.	[[
=21	=21	=21	=21
*	*^	*	*
8FF#\L	((2.a^\ 2.aa	8ra	.	>
8D\	.	8ra	.	.
8E#X\J	.	(<32b/LLL	.	.
.	.	32cc#/	.	.
.	.	32b/	.	.
.	.	32cc#/JJJ	.	.
8B\L	.	4dd\)	.	.
8E#\	.	.	.	.
8D\J	.	8ra	.	]
*	*v	*v	*	*
=22	=22	=22	=22
8FF#\L	2.g#\)) 2.gg#	.	pp
16BB\L	.	.	.
16C#\	.	.	.
16BB\	.	.	.
16C#\JJ	.	.	.
8D\L	.	.	.
8E#X\	.	.	.
8B\J	.	.	.
!!LO:PB:g=original	!	!
=23	=23	=23	=23
8FF#\L	8cc#\L 8ccc#	.	.
8C#\	8dd\ 8ddd	.	.
8E\J	8cc#\J 8ccc#	.	.
8A\L	[4.aa^<\ [4.aaa	.	.
8F#\	.	.	.
8C#\J	.	.	.
=24	=24	=24	=24
8FF#\L	8aa\L] 8aaa]	.	.
8C#\	8ff#\ 8fff#	.	.
8F#\J	16cc#\L 16ccc#	.	.
.	16a\JJ 16aa	.	f
!	!LO:TUP:a	!	!
8A\L	24f#\LL 24ff#	.	<
.	24g#\ 24gg#	.	.
.	24f#\JJ 24ff#	.	.
8F#\	16e#X\LL 16ee#X	.	.
.	16f#\ 16ff#	.	.
8C#\J	16g#\ 16gg#	.	.
.	16a\JJ 16aa	.	[[
=25	=25	=25	=25
*	*^	*	*
*ped	*	*	*	*
8FF#\L	((2.a^\ 2.aa	4ra	.	>
8D\	.	.	.	.
8E#X\J	.	32b/LLL	.	.
.	.	32cc#/	.	.
.	.	32b/	.	]
.	.	32cc#/JJJ	.	.
8B\L	.	4dd/	.	.
8E#\	.	.	.	.
8D\J	.	8ra	.	.
*Xped	*	*	*	*
*	*v	*v	*	*
=26	=26	=26	=26
8FF#\L	2.g#\)) 2.gg#	.	p
16BB\L	.	.	.
16C#\	.	.	.
16BB\	.	.	.
16C#\JJ	.	.	.
8D\L	.	.	.
8E#X\	.	.	.
8B\J	.	.	.
!!LO:LB:g=original	!	!
=27	=27	=27	=27
8FF#\L	[>4.cc#\ [4.ccc#	.	<
8C#\	.	.	.
8E\J	.	.	.
8A\L	8cc#\L] 8ccc#]	.	.
8F#\	8b#X\ 8bb#X	.	.
8C#\J	8cc#\J 8ccc#	.	[[
=28	=28	=28	=28
*ped	*	*	*
8FF#\L	4dd^<\ 4ddd	.	.
8C#\	.	.	.
8E\J	8cc#\ 8ccc#	.	.
!	!LO:TX:b:B:t=accel&colon;	!	!
8A#X\L	4ggn^<\ 4gggn	.	.
8F#\	.	.	.
8C#\J	8ff#\ 8fff#	.	.
*Xped	*	*	*
=29	=29	=29	=29
*ped	*	*	*
8BBB/ 8BB	4ggn\ 4gggn	.	ff
8F#\L	.	.	.
8B\J	8ff#\ 8fff#	.	.
*	*8va	*	*
8d\L	4eee\ 4eeee	.	.
8B\	.	.	.
8F#\J	[>8ddd^<\ [8dddd	.	.
*Xped	*	*	*
=30	=30	=30	=30
*ped	*	*	*
8BB\L	8ddd\L] 8dddd]	.	.
8Gn\	8bb\ 8bbb	.	.
8B\J	8ggn\J 8gggn	.	.
*	*X8va	*	*
!	!LO:TX:a:B:t=loco	!	!
8d\L	8dd\L 8ddd	.	>
8B\	8b\ 8bb	.	.
8G\J	8gn\J 8gg	.	]]
*Xped	*	*	*
=31	=31	=31	=31
8BB#X\L	4f#\ 4ff#	.	<
8F#\	.	.	.
8A\J	8g#\ 8gg#	.	.
8d\L	[>4.a\ [4.aa	.	[[
8A\	.	.	.
8F#\J	.	.	.
!!LO:LB:g=original	!	!
=32	=32	=32	=32
8C#\L	8a\L] 8aa]	.	>
8F#\ 8A	8g#\ 8gg#	.	.
8c#\J	8f#\J 8ff#	.	.
!	!LO:TX:b:B:t=rall&colon;	!	!
8C#\L	8e#X\L 8ee#X	.	] p
8G#\ 8B	8f#\ 8ff#	.	.
8c#\J	8g#\J 8gg#	.	.
=33	=33	=33	=33
8FF#\L	4.f#/ 4.ff#	.	pp
16C#\L	.	.	.
16F#\	.	.	.
16C#\	.	.	.
16F#\JJ	.	.	.
8A\L	[4.cc#^>/	.	.
8F#\	.	.	.
8C#\J	.	.	.
=34	=34	=34	=34
*	*^	*	*
8FF#\L	4cc#/]	[4.b\	.	.
8C#\	.	.	.	.
8E#X\J	24dd/LL	.	.	.
.	24ee/	.	.	.
.	24dd/JJ	.	.	.
8B\L	[4.cc#/	4b\]	.	.
8E#\	.	.	.	.
8C#\J	.	8b\	.	.
=35	=35	=35	=35	=35
!	!	!	!	!LO:HP:a
8FF#\L	8cc#/L]	[4.a\	.	<
8C#\	8ff#/	.	.	.
8F#\J	8gg#/J	.	.	.
!	!	!	!	!LO:HP:a
8A\L	8aa/L	4.a\]	.	[ >
8F#\	8gg#/	.	.	.
8C#\J	8ff#/J	.	.	]]
=36	=36	=36	=36	=36
*	*	*	*	*^
8FF#\L	[4.ee#X/	8r	.	.	.
8C#\	.	8b\L	.	<	.
8E#X\J	.	8cc#\J	.	.	.
!	!	!	!	!	!LO:HP:a
8B\L	8ee#/L]	8dd\L	.	[ >	<
8E#\	8ff#/	8cc#\	.	.	.
8C#\J	8gg#/J	8b\J	.	]]	[[
*	*	*	*	*v	*v
!!LO:LB:g=original	!	!	!
=37	=37	=37	=37	=37
!	!	!	!	!LO:HP:a
8FF#\L	8ff#/L	[4.a\	.	>
16C#\L	8ee/	.	.	.
16F#\	.	.	.	.
16C#\	8dd/J	.	.	.
16F#\JJ	.	.	.	.
8A\L	[4.cc#/	8a\L]	.	] p
8F#\	.	8g#\	.	.
8C#\J	.	8f#\J	.	.
=38	=38	=38	=38	=38
8FF#X\L	8cc#/L]	[4.e#X\	.	.
8C#\	8cc#/	.	.	.
8E#X\J	24dd/L	.	.	.
.	24ee/	.	.	.
.	24dd/JJ	.	.	.
8B\L	[4.cc#/	8e#\L]	.	<
8E#\	.	8g#\	.	.
8C#\J	.	8b\J	.	[[
=39	=39	=39	=39	=39
!	!	!	!	!LO:HP:a
8FF#\L	8cc#/L]	[4.a\	.	<
8C#\	8ff#/	.	.	.
8F#\J	8gg#/J	.	.	.
!	!	!	!	!LO:HP:a
8A\L	8aa/L	4.a\]	.	[ >
8F#\	8gg#/	.	.	.
8C#\J	8ff#/J	.	.	]]
=40	=40	=40	=40	=40
8FF#\L	[4.ee#X/	8r	.	.
8C#\ 8G#	.	8b\L	.	<
8A\J	.	8cc#\J	.	.
8B\L	8ee#/L]	8dd\L	.	[ >
8A\	8ff#/	8cc#\	.	.
8G#\J	8gg#/J	8b\J	.	]]
=41	=41	=41	=41	=41
8FF#\L	(4.ff#/	4.a\	.	.
8C#\	.	.	.	.
8F#\J	.	.	.	.
8A^\L	4ff#/	4.dd^\	.	.
8F#\	.	.	.	.
8D\J	8gg#/	.	.	.
!!LO:LB:g=original	!	!	!
=42	=42	=42	=42	=42
8FF#\L	4aa/	4.cc#\	.	.
8C#\	.	.	.	.
8F#\J	8ff#/	.	.	pp
8A^\L	4ff#/	4.dd^\	.	.
8F#\	.	.	.	.
8D\J	8gg#/	.	.	.
=43	=43	=43	=43	=43
!	!LO:TX:b:B:t=rall&colon;	!	!	!
8FF#\L	8aa/)	8cc#\	.	.
8C#\	8rgg	8ra	.	.
8F#\J	8rgg	8ra	.	.
8A\L	(4.ff#/	4ra	.	.
8F#\	.	.	.	.
8D\J	.	8ra	.	.
=44	=44	=44	=44	=44
8FF#\L	8ccc#/)	2.r	.	.
8C#\	8rgg	.	.	.
8F#\J	8rgg	.	.	ppp
8A\L	(4.ff#/	.	.	.
8F#\	.	.	.	.
8C#\J	.	.	.	.
*	*v	*v	*	*
=45	=45	=45	=45
8FF#\L	8fff#/)	.	.
8A\	8reee	.	.
8c#\J	8reee	.	.
8f#\	8r	.	.
8r	8a/L	.	.
8r	8cc#/J	.	.
!!LO:PB:g=original	!	!
=46	=46	=46	=46
4r	8a/L	.	.
.	8f#/	.	.
8r	8c#/J	.	.
8r	8A/	.	.
(8F#\L	8r	.	.
8C#\J)	8r	.	.
=47	=47	=47	=47
*^	*	*	*
!	!	!LO:TX:a:B:t=(116 = [quarter].)	!	!LO:DY:a
4.A^^/	2.D\	16d/LL	.	pp
.	.	16f#/	.	.
!	!	!LO:TX:a:B:t=accel	!	!
.	.	16d/	.	.
.	.	16f#/	.	.
.	.	16d/	.	.
.	.	16f#/JJ	.	.
4.B^^/	.	16d/LL	.	.
.	.	16f#/	.	.
.	.	16d/	.	.
.	.	16f#/	.	.
.	.	16d/	.	.
.	.	16f#/JJ	.	.
=48	=48	=48	=48	=48
4B/	2.D\	16d/LL	.	.
.	.	16f#/	.	.
.	.	16d/	.	.
.	.	16f#/	.	.
8A^^/	.	16d/	.	.
.	.	16f#/JJ	.	.
8D^^/L	.	16d/LL	.	.
.	.	16f#/	.	.
8E^^/	.	16d/	.	.
.	.	16f#/	.	.
8F#^^/J	.	16d/	.	.
.	.	16f#/JJ	.	.
=49	=49	=49	=49	=49
*ped	*	*	*	*
2.F#^^/	4rAA	16r	.	.
.	.	(16c#/LL	.	<
.	.	16e/	.	.
.	.	16g#/	.	.
.	8rAA	16b-X/	.	.
.	.	16cc#/JJ	.	.
.	4.DD\ 4.GG# 4.BB-X	16ee\LL	.	.
.	.	16gg#\	.	.
.	.	16bb\	.	.
.	.	16ccc#\	.	.
.	.	16eee\	.	.
.	.	16ggg#\JJ	.	[[
*Xped	*	*	*	*
=50	=50	=50	=50	=50
*ped	*	*	*	*
2.E^^/	4rFF	16bbb-X\LL	.	>
.	.	16ggg#\	.	.
.	.	16eee\	.	.
.	.	16ccc#\	.	.
.	8rAA	16bb\	.	.
.	.	16gg#\JJ	.	.
.	4.DD\ 4.GG# 4.BB-X	16ee\LL	.	.
.	.	16cc#\	.	.
.	.	16b\	.	.
.	.	16g#\	.	.
.	.	16e\	.	.
.	.	16c#\JJ)	.	]]
*Xped	*	*	*	*
!!LO:LB:g=original	!	!	!
=51	=51	=51	=51	=51
!	!	!	!	!LO:DY:a
4.A^^/	2.D\	16d/LL	.	pp
.	.	16fn/	.	.
.	.	16d/	.	.
.	.	16f/	.	.
.	.	16d/	.	.
.	.	16f/JJ	.	.
[4.B-X^^/	.	16d/LL	.	.
.	.	16f/	.	.
.	.	16d/	.	.
.	.	16f/	.	.
.	.	16d/	.	.
.	.	16f/JJ	.	.
=52	=52	=52	=52	=52
4B-X^^/]	2.D\	16d/LL	.	.
.	.	16fn/	.	.
.	.	16d/	.	.
.	.	16f/	.	.
8A^^/	.	16d/	.	.
.	.	16f/JJ	.	.
8D^^</L	.	16d/LL	.	.
.	.	16f/	.	.
8E^^</	.	16d/	.	.
.	.	16f/	.	.
8F#^^</J	.	16d/	.	.
.	.	16f/JJ	.	.
=53	=53	=53	=53	=53
*ped	*	*	*	*
2.Fn/	8rFF	16r	.	.
.	.	16c#\LL	.	<
.	8ryy	16e\	.	.
.	.	16g#\	.	.
.	8r	16b-X\	.	.
.	.	16cc#\JJ	.	.
.	4.DD\ 4.GG# 4.BB-X	16ee\LL	.	.
.	.	16gg#\	.	.
.	.	16bb\	.	.
.	.	16ccc#\	.	.
.	.	16eee\	.	.
.	.	16ggg#\JJ	.	[[
*Xped	*	*	*	*
=54	=54	=54	=54	=54
*ped	*	*	*	*
2.E^^/	4r	16bbb\LL	.	>
.	.	16ggg#\	.	.
.	.	16eee\	.	.
.	.	16ccc#\	.	.
.	8r	16bb\	.	.
.	.	16gg#\JJ	.	.
.	4.DD\ 4.GG# 4.BB-X	16ee\LL	.	.
.	.	16cc#\	.	.
.	.	16b\	.	.
.	.	16g#\	.	.
.	.	16e\	.	.
.	.	16c#\JJ	.	]]
*v	*v	*	*	*
*Xped	*	*	*
!!LO:LB:g=original	!	!
=55	=55	=55	=55
*	*^	*	*
(8D\L	4.aa/	16aa\LL	.	p
.	.	16a\	.	.
8A\	.	16dd\	.	.
.	.	16ffn\	.	.
8d\J	.	16dd\	.	.
.	.	16a\JJ	.	.
8fn\L	8aa/L	16aa\LL	.	.
.	.	16a\	.	.
8d\	8gg#/	16gg#\	.	.
.	.	16g#\	.	.
8A\J)	8aa/J	16aa\	.	.
.	.	16a\JJ	.	.
=56	=56	=56	=56	=56
8D\L	4.bb-X/	16bb-\LL	.	<
.	.	16ffn\	.	.
8Fn\	.	16dd\	.	.
.	.	16b\	.	.
8B-X\J 8f#	.	16ff\	.	.
.	.	16dd\JJ	.	.
8D-X\L	4.bbn/	16bb\LL	.	[
.	.	16aa-X\	.	.
8F\	.	16ff\	.	.
.	.	16b\	.	.
8Bn\J 8f#	.	16aa-\	.	.
.	.	16ff\JJ	.	.
=57	=57	=57	=57	=57
*	*	*ped	*	*
16CCn/LL	4ddd/	4dd\	.	f
16FFn/	.	.	.	.
16AA/	.	.	.	.
16C#/	.	.	.	.
16F#/	8cccn/	8ccn\	.	.
16A/JJ	.	.	.	.
16C#\LL	4bb-X/	4b-X\	.	.
16F#\	.	.	.	.
16A\	.	.	.	.
16c#\J	.	.	.	.
8f#\J	8aa/	16a\LL	.	.
.	.	16cc\JJ	.	.
*	*	*Xped	*	*
=58	=58	=58	=58	=58
*ped	*	*	*	*
!	!LO:N:vis=8	!	!	!
8Cn\L	4aa/	16a\LL	.	.
.	.	16ccn\	.	.
8Gn\ 8B-X	.	16ee\	.	.
.	.	16cc\J	.	.
8c#\J	8ggn/	8gn\J	.	.
8C^\L	4ffn/	16fn\LL	.	.
.	.	16g\	.	.
8G\ 8B-	.	16cc\	.	.
.	.	16g\J	.	.
8c#\J	8ee/	8e\J	.	.
*Xped	*	*	*	*
!!LO:LB:g=original	!	!	!
=59	=59	=59	=59	=59
8FFn/	4.cccn/	16ccc\LL	.	p
.	.	16ccny\	.	.
16Fny\LL	.	16ffn\	.	.
16A-X\	.	16aa-X\	.	.
16cn\	.	16ff\	.	.
16A-\JJ	.	16cc\JJ	.	.
8fny\L	8ccc/L	16ccc\LL	.	.
.	.	16cc\	.	<
8c\	8bb/	16bb\	.	.
.	.	16b\	.	.
8A-\J	8ccc/J	16ccc\	.	.
.	.	16cc\JJ	.	.
=60	=60	=60	=60	=60
8Fn\L	4.ddd-X/	16ddd-X\LL	.	.
.	.	16dd-y\	.	.
8A-X\ 8d-X	.	16ffn\	.	.
.	.	16aa-X\	.	[
8fn\J	.	16ff\	.	.
.	.	16dd-\JJ	.	.
8F-X\L	4.dddn/	16ddd\LL	.	.
.	.	16ddny\	.	.
8A-\ 8c-X	.	16aa-\	.	.
.	.	16ccc-X\	.	.
8f\J	.	16aa-\	.	.
.	.	16dd\JJ	.	.
=61	=61	=61	=61	=61
*ped	*	*	*	*
16EE-X/LL	4fffn/	4ffn\	.	f
16AA-X/	.	.	.	.
16Cn/	.	.	.	.
16E/	.	.	.	.
16A/	8eee-X/	8ee-X\	.	.
16c#/JJ	.	.	.	.
16E\LL	4ddd-X/	4dd-X\	.	.
16A\	.	.	.	.
16c#\	.	.	.	.
16e\J	.	.	.	.
8a\J	8cccn/	16ccn\LL	.	.
.	.	16ee-\JJ	.	.
*Xped	*	*	*	*
=62	=62	=62	=62	=62
*ped	*	*	*	*
8E-X\L	4cccn/	16ccn\LL	.	.
.	.	16ee-X\	.	.
8B-X\ 8d-X	.	16ggn\	.	.
.	.	16ee-\J	.	.
8e\J	8bb-X/	8b-X\J	.	.
8Gn\L 8d-	4aa-X/	16a-X\LL	.	.
.	.	16b-\	.	.
8B-\	.	16dd-X\	.	.
.	.	16b-\J	.	.
8E-\J	8gg/	8g#\J	.	.
*Xped	*	*	*	*
!!LO:LB:g=original	!	!	!
=63	=63	=63	=63	=63
8GG#\L	4.ddd#X/	16ddd#\LL	.	<
.	.	16dd#y\	.	.
8D#X\ 8G#	.	16gg#\	.	.
.	.	16bb\	.	.
8G#\J 8B	.	16gg#\	.	.
.	.	16dd#\JJ	.	.
8D#\L 8G#	8ddd#/L	16ddd#\LL	.	.
.	.	16dd#\	.	.
8G#\ 8B	8ccc##X/	16ccc##X\	.	.
.	.	16cc##y\	.	.
8D#\J 8G#	8ddd#/J	16ddd#\	.	.
.	.	16dd#\JJ	.	.
=64	=64	=64	=64	=64
8GG#\L	4.eee/	16eee\LL	.	[ f
.	.	16ee\	.	.
8E\ 8G#	.	16gg#\	.	.
.	.	16bb\	.	.
8B\J	.	16gg#\	.	.
.	.	16ee\JJ	.	.
8GGn\L	4.eee#X/	16eee#\LL	.	.
.	.	16ee#y\	.	.
8D\ 8G#	.	16bb\	.	.
.	.	16ddd\	.	.
8B\J	.	16bb\	.	.
.	.	16ee#\JJ	.	.
=65	=65	=65	=65	=65
*ped	*	*	*	*
16FF#\LL	4ggg#/	4gg#\	.	ff
16BB\	.	.	.	.
16D#X\	.	.	.	.
16F#\	.	.	.	.
16B\	8fff#/	8ff#\	.	.
16d\JJ	.	.	.	.
16f#\LL	4eee/	4ee\	.	.
16d\	.	.	.	.
16B\	.	.	.	.
16F#\	.	.	.	.
16D#\	8ddd#X/	8dd#X\	.	.
16BB\JJ	.	.	.	.
*Xped	*	*	*	*
=66	=66	=66	=66	=66
*	*	*ped	*	*
8FF##X\L	4.ddd#X/	16dd#X\LL	.	.
.	.	16ff##X\	.	.
8E\ 8A#X	.	16aa#X\	.	.
.	.	16ff##\	.	.
8A#\J 8c#	.	16aa#\	.	.
.	.	16ff##\JJ	.	.
*	*	*Xped	*	*
8c#\L 8e	4.ccc#/	16cc#\LL	.	.
.	.	16ff##\	.	.
8A#\ 8c#	.	16aa#\	.	.
.	.	16ff##\	.	.
8E\J 8A#	.	16aa#\	.	.
.	.	16ff##\JJ	.	.
!!LO:LB:g=original	!	!	!
=67	=67	=67	=67	=67
*	*	*ped	*	*
16GG#\LL	4eee/	4ee\	.	.
16BB\	.	.	.	.
16D#X\	.	.	.	.
16G#\	.	.	.	.
16B\	8ddd#X/	8dd#X\	.	.
16d#y\JJ	.	.	.	.
16g#\LL	4ccc#/	4cc#\	.	.
16d#\	.	.	.	.
16B\	.	.	.	.
16G#\	.	.	.	.
16D#\	8bb/	8b\	.	.
16BB\JJ	.	.	.	.
*	*	*Xped	*	*
=68	=68	=68	=68	=68
*	*	*ped	*	*
8DD#X/	4.bb/	16b\LL	.	.
.	.	16dd#X\	.	.
8D#y\L 8F##X	.	16ff##X\	.	.
.	.	16dd#\	.	.
8F##\J 8A	.	16ff##\	.	.
.	.	16dd#\JJ	.	.
8A\L 8d#y	4.aa#X/	16a#X\LL	.	.
.	.	16dd#\	.	.
8F##\ 8A	.	16ff##\	.	.
.	.	16dd#\	.	.
8D#\J 8F##	.	16ff##\	.	.
.	.	16dd#\JJ	.	.
*	*	*Xped	*	*
=69	=69	=69	=69	=69
*	*	*ped	*	*
16EE\LL	4ccc#/	4cc#\	.	.
16GG#\	.	.	.	.
16BB\	.	.	.	.
16E\	.	.	.	.
16G#\	8bb/	8b\	.	.
16B\JJ	.	.	.	.
16e\LL	4aa/	4a\	.	.
16B\	.	.	.	.
16G#\	.	.	.	.
16E\	.	.	.	.
16BB\	8gg#/	8g#\	.	.
16GG#\JJ	.	.	.	.
*	*	*	*	*
*	*	*Xped	*	*
=70	=70	=70	=70	=70
*	*	*ped	*	*
8BBB#X/ 8BB#X	4.gg#/	16g#\LL	.	.
.	.	16b#X\	.	.
8D#X\L 8F#	.	16dd#X\	.	.
.	.	16b#\	.	.
8F#\J 8A	.	16dd#\	.	.
.	.	16b#\JJ	.	.
8A\L 8d	4.ff#/	16f#\LL	.	.
.	.	16b#\	.	.
8F#\ 8A	.	16dd#\	.	.
.	.	16b#\	.	.
8D#\J 8F#	.	16dd#\	.	.
.	.	16b#\JJ	.	.
*	*	*Xped	*	*
!!LO:LB:g=original	!	!	!
=71	=71	=71	=71	=71
*ped	*	*	*	*
8CC#^>/ 8C#	4.aa/	16a\LL	.	.
.	.	16cc#\	.	.
8C#\L 8F#	.	16ff#\	.	.
.	.	16cc#\	.	.
8F#\J 8A	.	16ff#\	.	.
.	.	16cc#\JJ	.	.
8A\L 8c#	4.ff#/	16f#\LL	.	.
.	.	16a\	.	.
8F#\ 8A	.	16cc#\	.	.
.	.	16a\	.	.
8C#\J 8F#	.	16cc#\	.	.
.	.	16a\JJ	.	.
*Xped	*	*	*	*
=72	=72	=72	=72	=72
*ped	*	*	*	*
8DD/ 8D	4.aa/	16a\LL	.	.
.	.	16b#X\	.	.
8D\L 8F#	.	16ff#\	.	.
.	.	16b#\	.	.
8F#\J 8A	.	16ff#\	.	.
.	.	16b#\JJ	.	.
8A\L 8d	4.ff#/	16f#\LL	.	.
.	.	16a\	.	.
8F#\ 8A	.	16b#\	.	.
.	.	16a\	.	.
8D\J 8F#	.	16b#\	.	.
.	.	16a\JJ	.	.
*	*v	*v	*	*
*Xped	*	*	*
=73	=73	=73	=73
8.D\L 8.F# 8.B#X	8.a\L 8.aa	.	.
16D\K 16G# 16B#	16g#\K 16gg#	.	.
8D\J 8A 8B#	8f#\J 8ff#	.	.
8.D\L 8.F# 8.B#	8.a\L 8.aa	.	.
16D\K 16G# 16B#	16g#\K 16gg#	.	.
8D\J 8A 8B#	8f#\J 8ff#	.	.
*clefG2	*	*	*
=74	=74	=74	=74
*	*8va	*	*
8.d\L 8.f# 8.b#X	8.aa\L 8.aaa	.	.
16d\K 16g# 16b#	16gg#\K 16ggg#	.	.
8d\J 8a 8b#	8ff#\J 8fff#	.	.
8.d\L 8.f# 8.b#	8.aa\L 8.aaa	.	.
16d\K 16g# 16b#	16gg#\K 16ggg#	.	.
8d\J 8a 8b#	8ff#\J 8fff#	.	.
*clefF4	*	*	*
=75	=75	=75	=75
*8va	*	*	*
*ped	*	*	*
16aa>\LL	16aaa^</LL	.	fff
16gg#>\	16ggg#/	.	.
16ff#>\	16fff#/	.	.
16b#X>\JJ	16bb#X/JJ	.	.
16aa>\LL	16aaa^</LL	.	.
16gg#>\	16ggg#/	.	.
16ff#>\	16fff#/	.	.
16b#>\JJ	16bb#/JJ	.	.
*X8va	*X8va	*	*
16a>\LL	16aa^</LL	.	.
16g#>\	16gg#/	.	.
16f#>\	16ff#/	.	.
16B#y>\JJ	16b#X/JJ	.	.
!!LO:PB:g=original	!	!
=76	=76	=76	=76
16a>\LL	16aa^</LL	.	.
16g#>\	16gg#/	.	.
16f#>\	16ff#/	.	.
16B#X>\JJ	16b#X/JJ	.	.
16A\LL	16a^/LL	.	.
16G#\	16g#/	.	.
16F#\	16f#/	.	.
16BB#X\JJ	16B#X/JJ	.	.
16AA\LL	16A<^</LL	.	.
16GG#\	16G#</	.	.
16FF#\	16F#</	.	.
16BBB#y\JJ	16BB#y</JJ	.	.
=77	=77	=77	=77
!	!	!	!LO:DY:b
8CC#\L	8C#<^^/L	.	pp
8GG#\ 8BB	16r<	.	.
.	8D</ 8F#<	.	.
8GG#\J 8BB	.	.	.
.	8D</J 8E#X<	.	.
8GG#\L 8BB	.	.	.
.	8D</L 8F#<	.	.
8GG#\ 8BB	.	.	.
.	8D</ 8E#<	.	.
8GG#\J 8BB	.	.	.
.	16D</Jk 16F#<	.	.
=78	=78	=78	=78
!	!	!	!LO:DY:a
8GG#\L 8BB	16rB<	.	<
.	8D</L 8E#X<	.	.
8BB\ 8D	.	.	.
.	8E#</ 8A<	.	.
8BB\J 8D	.	.	.
.	8E#</J 8G#<	.	.
8BB\L 8E	.	.	.
.	8E#</L 8A<	.	.
8BB\ 8D	.	.	.
.	8E#</ 8G#<	.	.
8BB\J 8D	.	.	.
!	!LO:N:vis=8	!	!
.	16E#</Jk 16A<	.	.
=79	=79	=79	=79
8BB\L 8D	16rB<	.	.
.	8E#X</L 8G#<	.	.
8E\ 8G#	.	.	.
.	8B</ 8d<	.	.
8E\J 8G#	.	.	.
.	8B</J 8c#<	.	.
8G#\L 8B	.	.	.
.	8d/L 8f#	.	[
8G#\ 8B	.	.	.
.	8d/ 8e#X	.	.
8B\J 8d	.	.	.
.	16e#/Jk 16a	.	.
=80	=80	=80	=80
8B\L 8d	16ree	.	.
.	8e#X/L 8g#	.	.
8e>\ 8g#>	.	.	.
.	8b/ 8dd	.	.
8e>\J 8g#>	.	.	.
.	8b/J 8cc#	.	.
8g#>\L 8b>	.	.	.
.	8dd/L 8ff#	.	.
8g#>\ 8b>	.	.	.
!	!LO:TX:b:B:t=tutta la	!	!
.	8dd/ 8ee	.	.
8ee>\J 8gg#>	.	.	.
.	16bb/Jk 16ddd	.	.
!!LO:LB:g=original	!	!
=81	=81	=81	=81
*ped	*	*	*
!	!LO:TX:b:B:t=forza	!	!
8ee#X>\L 8gg#>	16rddd	.	.
.	8bb/L 8ccc#	.	.
8gg#>\ 8bb>	.	.	.
.	8bb/ 8ddd	.	.
8gg#>\J 8bb>	.	.	.
.	8bb/J 8ccc#X	.	.
*8va	*	*	*
8bb>\L 8ddd>	.	.	.
*	*8va	*	*
.	8eee/L 8aaa	.	.
8bb>\ 8ddd>	.	.	.
.	8eee/ 8ggg#	.	.
8eeeny>\J 8ggg#>	.	.	.
.	16bbb/Jk 16dddd	.	.
*Xped	*	*	*
=82	=82	=82	=82
*ped	*	*	*
8eee#X>\L 8ggg#>	16rddd	.	.
.	8bbb/L 8cccc#	.	.
8dd>\ 8ee#y> 8gg#>	.	.	.
.	8ddd/ 8ggg# 8dddd	.	.
8cc#>\J 8ee#> 8gg#>	.	.	.
.	8ccc#/J 8ggg# 8cccc#	.	.
8dd>\L 8ee#> 8gg#>	.	.	.
.	8ddd/L 8ggg# 8dddd	.	.
8cc#>\ 8ee#> 8gg#>	.	.	.
.	8ccc#/ 8ggg# 8cccc#	.	.
8dd>\J 8ee#> 8gg#>	.	.	.
.	16ddd/Jk 16ggg# 16dddd	.	.
*X8va	*X8va	*	*
*Xped	*	*	*
=83	=83	=83	=83
*ped	*	*	*
8c#>\L 8e#X> 8g#>	16rddd	.	.
.	8cc#/L 8gg# 8ccc#	.	.
8d>\ 8e#> 8g#>	.	.	.
.	8dd/ 8gg# 8ddd	.	.
8c#>\J 8e#> 8g#>	.	.	.
.	8cc#/J 8gg# 8ccc#	.	.
8d>\L 8e#> 8g#>	.	.	.
.	8dd/L 8gg# 8ddd	.	.
8c#>\ 8e#> 8g#>	.	.	.
.	8cc#/ 8gg# 8ccc#	.	.
8d>\J 8e#> 8g#>	.	.	.
.	16dd/Jk 16gg# 16ddd	.	.
*Xped	*	*	*
=84	=84	=84	=84
*ped	*	*	*
8c#>\L 8e> 8g#>	16rgg	.	.
!	!LO:TX:b:B:t=pesante	!	!
.	8cc#/L 8gg# 8ccc#	.	.
8D\ 8E#X 8G# 8B	.	.	.
.	8d/ 8g# 8dd	.	.
8C#\J 8E# 8G# 8B	.	.	.
.	8c#/J 8g# 8cc#	.	.
8E#\L 8G# 8B	.	.	.
.	8d/L 8g# 8dd	.	.
8C#\ 8E# 8G# 8B	.	.	.
.	8c#/ 8g# 8cc#	.	.
8D\J 8E# 8G# 8B	.	.	.
.	16d/Jk 16g# 16dd	.	.
*Xped	*	*	*
=85	=85	=85	=85
8C#\L 8E#X 8G# 8B	8c#/L 8g# 8cc#	.	.
8CC#\ 8C#	8c#/ 8cc#	.	.
8CC#\J 8C#	8c#/J 8cc#	.	.
8CC#\L 8C#	8c#/L 8cc#	.	.
8CC#\ 8C#	8c#/ 8cc#	.	.
8CC#\J 8C#	8c#/J 8cc#	.	.
!!LO:LB:g=original	!	!
=86	=86	=86	=86
*^	*^	*	*
*ped	*	*	*	*	*
2.G#^^</	8rFF	8r	2.B^^\	.	.
.	8CC#\L 8C#	8c#/L 8cc#	.	.	.
.	8CC#\J 8C#	8c#/J 8cc#	.	.	.
.	8CC#\L 8C#	8c#/L 8cc#	.	.	.
.	8CC#\ 8C#	8c#/ 8cc#	.	.	.
.	8CC#\J 8C#	8c#/J 8cc#	.	.	.
*Xped	*	*	*	*	*
=87	=87	=87	=87	=87	=87
*ped	*	*	*	*	*
2.Gn^^</	8rFF	8r	2.c#X^^\	.	.
.	8CC#\L 8C#	8c#/L 8cc#	.	.	.
.	8CC#\J 8C#	8c#/J 8cc#	.	.	.
.	8CC#\L 8C#	8c#/L 8cc#	.	.	.
.	8CC#\ 8C#	8c#/ 8cc#	.	.	.
.	8CC#\J 8C#	8c#/J 8cc#	.	.	.
*Xped	*	*	*	*	*
=88	=88	=88	=88	=88	=88
*ped	*	*	*	*	*
2.F#^^</	8rFF	8r	2.cn^^\	.	.
.	8CC#\L 8C#	8c#X/L 8cc#	.	.	.
.	8CC#\J 8C#	8c#/J 8cc#	.	.	.
.	8CC#\L 8C#	8c#/L 8cc#	.	.	.
.	8CC#\ 8C#	8c#/ 8cc#	.	.	.
.	8CC#\J 8C#	8c#/J 8cc#	.	.	.
*Xped	*	*	*	*	*
=89	=89	=89	=89	=89	=89
*ped	*	*	*	*	*
[2.F#^^</	8rFF	8r	[2.G#\	.	.
.	8CC#\L 8C#	8c#/L 8cc#	.	.	.
.	8CC#\J 8C#	8c#/J 8cc#	.	.	.
.	8CC#\L 8C#	8c#/L 8cc#	.	.	.
.	8CC#\ 8C#	8c#/ 8cc#	.	.	.
.	8CC#\J 8C#	8c#/J 8cc#	.	.	.
=90	=90	=90	=90	=90	=90
2.F#/]	8rFF	8c#/L 8cc#	2.G#\]	.	.
.	8CC#\L 8C#	8c#/ 8cc#	.	.	.
.	8CC#\J 8C#	8c#/J 8cc#	.	.	.
!	!	!	!	!	!LO:DY:a
.	8CC#\L 8C#	8c#/L 8cc#	.	.	p
.	8CC#\ 8C#	8c#/ 8cc#	.	.	.
.	8CC#\J 8C#	8c#/J 8cc#	.	.	.
*Xped	*	*	*	*	*
=91	=91	=91	=91	=91	=91
*ped	*	*	*	*	*
!	!	!	!	!	!LO:DY:a
[2.E^^/	8r	8r	[2.B^^\	.	pp
.	8CC#\L 8C#	8c#/L 8cc#	.	.	.
.	8CC#\J 8C#	8c#/J 8cc#	.	.	.
.	8CC#\L 8C#	8c#/L 8cc#	.	.	.
.	8CC#\ 8C#	8c#/ 8cc#	.	.	.
.	8CC#\J 8C#	8c#/J 8cc#	.	.	.
!!LO:LB:g=original	!	!	!	!
=92	=92	=92	=92	=92	=92
2.E/]	8CC#\L 8C#	8c#/L 8cc#	2B\]	.	.
.	8CC#\ 8C#	8c#/ 8cc#	.	.	.
!	!	!LO:TX:b:B:t=morendo	!	!	!
.	8CC#\J 8C#	8c#/J 8cc#	.	.	.
.	8CC#\L 8C#	8c#/L 8cc#	.	.	.
.	8CC#\ 8C#	8c#/ 8cc#	4ryy	.	.
!LO:N:vis=8	!	!	!	!	!
.	16CC#\Jk 16C#	16c#/Jk 16cc#	.	.	.
.	16rC;>	16r;	.	.	.
*Xped	*	*	*	*	*
*v	*v	*	*	*	*
*	*v	*v	*	*
=93	=93	=93	=93
*ped	*	*	*
!	!LO:TX:b:B:t=(80 = [quarter].)	!	!
!	!LO:TX:b:B:t=dolcissimo	!	!
16FF#\LL	4.cc#\ 4.ccc#	.	.
16C#\	.	.	.
16F#\	.	.	.
16A\	.	.	.
16c#\	.	.	.
16f#\JJ	.	.	.
16a\LL	[4.dd\ [4.ddd	.	.
16f#\	.	.	.
16c#\	.	.	.
16A\	.	.	.
16F#\	.	.	.
16C#\JJ	.	.	.
*Xped	*	*	*
=94	=94	=94	=94
*	*ped	*	*
16FF#\LL	4dd\] 4ddd]	.	.
16C#\	.	.	.
16F#\	.	.	.
16A\	.	.	.
16c#\	8cc#\ 8ccc#	.	.
16f#\JJ	.	.	.
16a\LL	8f#\L 8ff#	.	<
16f#\	.	.	.
16c#\	8.g#\ 8.gg#	.	.
16A\	.	.	.
16F#\	.	.	.
16C#\JJ	16a\Jk 16aa	.	[[
*	*Xped	*	*
=95	=95	=95	=95
*	*ped	*	*
16FF#\LL	((2.a\ 2.aa	.	f
16BB\	.	.	.
16D\	.	.	.
16E#X\	.	.	.
16G#\	.	.	.
16B\JJ	.	.	.
16d\LL	.	.	.
16B\	.	.	.
16G#\	.	.	.
16E#\	.	.	.
16D\	.	.	.
16BB\JJ	.	.	.
*	*Xped	*	*
!!LO:LB:g=original	!	!
=96	=96	=96	=96
*ped	*	*	*
16FF#\LL	4.g#\)) 4.gg#	.	p
16D\	.	.	.
16E#X\	.	.	.
16B\	.	.	.
16d\	.	.	.
16e\JJ	.	.	.
16b\LL	4r	.	.
16e\	.	.	.
16d\	.	.	.
16B\	.	.	.
16E#\	8r	.	.
16D\JJ	.	.	.
*Xped	*	*	*
=97	=97	=97	=97
*ped	*	*	*
16FF#\LL	8cc#\L 8ccc#	.	<
16C#\	.	.	.
16F#\	8dd\ 8ddd	.	.
16A\	.	.	.
16c#\	8cc#\J 8ccc#	.	.
16f#\JJ	.	.	.
16a\LL	[>4.aa\ [4.aaa	.	[
16f#\	.	.	.
16c#\	.	.	.
16A\	.	.	.
16F#\	.	.	.
16C#\JJ	.	.	.
*Xped	*	*	*
=98	=98	=98	=98
*ped	*	*	*
16FF#\LL	8aa\L] 8aaa]	.	>
16C#\	.	.	.
16F#\	16ff#\L 16fff#	.	.
16A\	16cc#\ 16ccc#	.	.
16c#\	16a\ 16aa	.	.
16f#\JJ	16f#\JJ 16ff#	.	.
16a\LL	16g#/LL 16gg#	.	]
16f#\	16f#/ 16ff#	.	<
16c#\	16e#X/ 16ee#X	.	.
16A\	16f#/ 16ff#	.	.
16F#\	16g#/ 16gg#	.	.
16C#\JJ	16a/JJ 16aa	.	[[
*Xped	*	*	*
=99	=99	=99	=99
*ped	*	*	*
16FF#\LL	((2.a\ 2.aa	.	>]
16BB\	.	.	.
16D\	.	.	.
16E#X\	.	.	.
16G#\	.	.	.
16B\JJ	.	.	.
16d\LL	.	.	.
16B\	.	.	.
16G#\	.	.	.
16E#\	.	.	.
16D\	.	.	.
16BB\JJ	.	.	.
*Xped	*	*	*
!!LO:LB:g=original	!	!
=100	=100	=100	=100
*ped	*	*	*
16FF#\LL	4.g#\)) 4.gg#	.	p
16D\	.	.	.
16E#X\	.	.	.
16B\	.	.	.
16d\	.	.	.
16e\JJ	.	.	.
16b\LL	4r	.	.
16e\	.	.	.
16d\	.	.	.
16B\	.	.	.
16E#\	8r	.	.
16D\JJ	.	.	.
*Xped	*	*	*
=101	=101	=101	=101
*ped	*	*	*
16FF#\LL	[>4.cc#\ [4.ccc#	.	pp
16C#\	.	.	.
16F#\	.	.	.
16A\	.	.	.
16c#\	.	.	.
16f#\JJ	.	.	.
16a\LL	8cc#X\L] 8ccc#]	.	.
16f#\	.	.	.
16c#\	8b#X\ 8bb#X	.	.
16A\	.	.	.
16F#\	8cc#\J 8ccc#	.	.
16C#\JJ	.	.	.
*Xped	*	*	*
=102	=102	=102	=102
*ped	*	*	*
16FF#\LL	4.dd\ 4.ddd	.	<
16AA\	.	.	.
16D\	.	.	.
16F#\	.	.	.
16D\	.	.	.
*Xped	*	*	*
16AA\JJ	.	.	.
*ped	*	*	*
16FFn\LL	4.dd#X\ 4.ddd#X	.	.
16Cn\	.	.	.
16D#X\	.	.	.
16A\	.	.	.
16D#\	.	.	.
16C\JJ	.	.	[[
*Xped	*	*	*
=103	=103	=103	=103
*ped	*	*	*
16EE\LL	4ff#\ 4fff#	.	.
16AA\	.	.	.
16C#\	.	.	.
16E\	.	.	.
16A\	8ee\ 8eee	.	.
16c#\JJ	.	.	.
16e\LL	4dd\ 4ddd	.	.
16c#\	.	.	.
16A\	.	.	.
16E\	.	.	.
16C#\	8cc#\ 8ccc#	.	f
16AA\JJ	.	.	.
*Xped	*	*	*
!!LO:LB:g=original	!	!
=104	=104	=104	=104
*ped	*	*	*
16EE\LL	8a#X\L 8aa#X	.	.
16GG#\	.	.	.
16D\	8b\ 8bb	.	.
16E\	.	.	.
16G#\	8gg#^\J 8ggg#	.	.
16d\JJ	.	.	.
16e\LL	8ff#\L 8fff#	.	>
16d\	.	.	.
16G#\	8dd\ 8ddd	.	.
16E\	.	.	.
16D\	8b\J 8bb	.	]]
16GG#\JJ	.	.	.
*Xped	*	*	*
=105	=105	=105	=105
*ped	*	*	*
16AA\LL	4.a\ 4.aa	.	.
16C#\	.	.	.
16E\	.	.	.
16A\	.	.	.
16c#\	.	.	.
16e\JJ	.	.	.
16a\LL	4r	.	.
16e\	.	.	.
16c#\	.	.	.
16A\	.	.	.
16E\	8cc#\	.	.
16C#\JJ	.	.	.
*Xped	*	*	*
=106	=106	=106	=106
*ped	*	*	*
16EE\LL	(8a#X\L	.	p <
16GG#\	.	.	.
16D\	8b\	.	.
16E\	.	.	.
16G#\	8gg#\J	.	.
16d\JJ	.	.	.
16e\LL	8ff#\L	.	[ >
16d\	.	.	.
16G#\	8dd\	.	.
16E\	.	.	.
16D\	8b\J)	.	]]
16GG#\JJ	.	.	.
*Xped	*	*	*
=107	=107	=107	=107
*ped	*	*	*
16AA\LL	4.a\	.	pp
16C#\	.	.	.
16E\	.	.	.
16A\	.	.	.
16c#\	.	.	.
16e\JJ	.	.	.
16a\LL	4r	.	.
16e\	.	.	.
16c#\	.	.	.
16A\	.	.	.
16E\	8r	.	.
16C#\JJ	.	.	.
*Xped	*	*	*
!!LO:PB:g=original	!	!
=108	=108	=108	=108
*ped	*	*	*
16CC#\LL	4G#/	.	pp
16GG#\	.	.	.
16C#\	.	.	.
16E#X\	.	.	.
16G#\	8ryy	.	.
16c#\JJ	.	.	.
!LO:TX:a:B:t=rall&colon;	!	!	!
16e#y\LL	4d^>/	.	.
16c#\	.	.	.
16G#\	.	.	.
16E#\	.	.	.
16C#\	8c#/	.	.
16GG#\JJ	.	.	.
*Xped	*	*	*
==109	==109	==109	==109
*k[f#c#g#d#a#e#]	*k[f#c#g#d#a#e#]	*	*
*	*ped	*	*
!	!LO:TX:a:B:t=con passione	!	!
16FF#\LL	4.cc#\ 4.ccc#	.	.
16C#\	.	.	.
16F#\	.	.	.
16A#\	.	.	.
16c#\	.	.	.
16f#\JJ	.	.	.
16a#\LL	[>4.dd#^\ [4.ddd#	.	.
16f#\	.	.	.
16c#\	.	.	.
16A#\	.	.	.
16F#\	.	.	.
16C#\JJ	.	.	.
*	*Xped	*	*
=110	=110	=110	=110
*	*ped	*	*
16FF#\LL	4dd#\] 4ddd#]	.	.
16C#\	.	.	.
16F#\	.	.	.
16A#\	.	.	.
16c#\	8cc#\ 8ccc#	.	.
16f#\JJ	.	.	.
16a#\LL	8f#\L 8ff#	.	.
16f#\	.	.	.
16c#\	8g#\ 8gg#	.	.
16A#\	.	.	.
16F#\	8a#\J 8aa#	.	.
16C#\JJ	.	.	.
*	*Xped	*	*
=111	=111	=111	=111
*	*ped	*	*
16FF#\LL	((2.a#\ 2.aa#	.	<
16Dn\	.	.	.
16E#\	.	.	.
16B\	.	.	.
16dn\	.	.	.
16e#\JJ	.	.	[
16b\LL	.	.	.
16e#\	.	.	.
16d\	.	.	.
16B\	.	.	.
16E#\	.	.	.
16D\JJ	.	.	.
*	*Xped	*	*
!!LO:LB:g=original	!	!
=112	=112	=112	=112
*	*ped	*	*
16FF#\LL	2.g#\)) 2.gg#	.	>
16Dn\	.	.	.
16E#\	.	.	.
16B\	.	.	.
16dn\	.	.	.
16e#\JJ	.	.	]
16b\LL	.	.	.
16e#\	.	.	.
16d\	.	.	.
16B\	.	.	.
16E#\	.	.	.
16D\JJ	.	.	.
*	*Xped	*	*
=113	=113	=113	=113
*	*ped	*	*
16FF#\LL	8cc#\L 8ccc#	.	<
16C#\	.	.	.
16F#\	8dd#\ 8ddd#	.	.
16A#\	.	.	.
16c#\	8cc#\J 8ccc#	.	.
16f#\JJ	.	.	.
16a#\LL	[>4.ccc#\ [4.cccc#	.	[[
16f#\	.	.	.
16c#\	.	.	.
16A#\	.	.	.
16F#\	.	.	.
16C#\JJ	.	.	.
*	*Xped	*	*
=114	=114	=114	=114
*	*ped	*	*
16FF#\LL	16ccc#\LL] 16cccc#]	.	f >
16C#\	16aa#\ 16aaa#	.	.
16F#\	16ff#\ 16fff#	.	.
16A#\	16cc#\ 16ccc#	.	.
16F#\	16a#\ 16aa#	.	.
16C#\JJ	16f#\JJ 16ff#	.	.
16FF#\LL	16g#\LL 16gg#	.	] <
16C#\	16f#\ 16ff#	.	.
16F#\	16e#\ 16ee#	.	.
16A#\	16f#\ 16ff#	.	.
16F#\	16g#\ 16gg#	.	.
16C#\JJ	16a#\JJ 16aa#	.	[[
*	*Xped	*	*
=115	=115	=115	=115
*	*^	*	*
*	*ped	*	*	*
16FF#\LL	((2.a#\ 2.aa#	4.ryy	.	f
16Dn\	.	.	.	.
16E#\	.	.	.	.
16B\	.	.	.	.
16d#\	.	.	.	.
16e#\JJ	.	.	.	.
16b\LL	.	4.ryy	.	>
16e#\	.	.	.	.
16d#\	.	.	.	.
16B\	.	.	.	.
16E#\	.	.	.	.
16D\JJ	.	.	.	]]
*	*v	*v	*	*
*	*Xped	*	*
!!LO:LB:g=original	!	!
=116	=116	=116	=116
*	*ped	*	*
16FF#\LL	2.g#\)) 2.gg#	.	p
16C#\	.	.	.
16E#\	.	.	.
16B\	.	.	.
16c#\	.	.	.
16e#\JJ	.	.	.
16b\LL	.	.	.
16e#\	.	.	.
16c#\	.	.	.
16B\	.	.	.
16E#\	.	.	.
16C#\JJ	.	.	.
*	*Xped	*	*
=117	=117	=117	=117
*	*ped	*	*
16FF#\LL	[4.cc#\ [4.ccc#	.	<
16C#\	.	.	.
16F#\	.	.	.
16A#\	.	.	.
16B\	.	.	.
16f#\JJ	.	.	.
16a#\LL	8cc#\L] 8ccc#]	.	.
16f#\	.	.	.
16c#\	8b#X\ 8bb#X	.	.
16A#\	.	.	.
16F#\	8cc#\J 8ccc#	.	[[
16C#\JJ	.	.	.
*	*Xped	*	*
=118	=118	=118	=118
*	*ped	*	*
16DD#\LL	4.ee#\ 4.eee#	.	.
16AA#\	.	.	.
16D#\	.	.	.
16F##X\	.	.	.
16A#\	.	.	.
16d#\JJ	.	.	.
16f##y\LL	4.dd#\ 4.ddd#	.	.
16d#\	.	.	.
16A#\	.	.	.
16F##\	.	.	.
16D#\	.	.	.
16AA#\JJ	.	.	.
*	*Xped	*	*
=119	=119	=119	=119
*	*ped	*	*
16GG#\LL	4ee#\ 4eee#	.	.
16D#\	.	.	.
16G#\	.	.	.
16B\	.	.	.
16d#\	8dd#\ 8ddd#	.	.
16g#\JJ	.	.	.
16b\LL	[4.bb\ [4.bbb	.	f
16g#\	.	.	.
16d#\	.	.	.
16B\	.	.	.
16G#\	.	.	.
16D#\JJ	.	.	.
*	*Xped	*	*
!!LO:LB:g=original	!	!
=120	=120	=120	=120
*	*ped	*	*
16BB\LL	8bb\L] 8bbb]	.	.
16D#\	.	.	.
16G#\	8aa#\ 8aaa#	.	.
16B\	.	.	.
16d#\	8ccc#\J 8cccc#	.	.
16g#\JJ	.	.	.
16b\LL	8bb\L 8bbb	.	>
16g#\	.	.	.
16d#\	8dd#\ 8ddd#	.	.
16B\	.	.	.
16G#\	8gg#\J 8ggg#	.	.
16D#\JJ	.	.	.
*	*Xped	*	*
=121	=121	=121	=121
16C#\LL	4ff#\ 4fff#	.	.
16F#\	.	.	.
16A#\	.	.	.
16c#\	.	.	.
16A#\	8a#^\ 8aa#	.	]
16F#\JJ	.	.	.
16C#\LL	8b^\L 8bb	.	<
16F#\	.	.	.
16A#\	8b#X^\ 8bb#X	.	.
16c#\	.	.	.
16A#\	8cc#^\J 8ccc#	.	.
16F#\JJ	.	.	.
=122	=122	=122	=122
16C#\LL	4.ee#X^<\ 4.eee#X	.	.
16E#X\	.	.	.
16G#\	.	.	.
16c#\	.	.	.
16G#\	.	.	.
16E#\JJ	.	.	.
16C#\LL	(8dd#\L 8ddd#	.	[ >
16E#\	.	.	.
16G#\	8cc#\ 8ccc#	.	.
16c#\	.	.	.
16G#\	8b\J) 8bb	.	]]
16E#\JJ	.	.	.
=123	=123	=123	=123
*	*ped	*	*
16FF#\LL	((4g##X^\ 4gg##X	.	.
16C#\	.	.	.
16F#\	.	.	.
16A#\	.	.	.
!	!LO:TX:b:B:t=accel	!	!
16F#\	8a#\)) 8aa#	.	.
16C#\JJ	.	.	.
16FF#\LL	((4g##^\ 4gg##	.	.
16C#\	.	.	.
16F#\	.	.	.
16A#\	.	.	.
16F#\	8a#\)) 8aa#	.	.
16C#\JJ	.	.	.
*	*Xped	*	*
!!LO:LB:g=original	!	!
=124	=124	=124	=124
*	*ped	*	*
16GG#\LL	((4a#^\ 4aa#	.	<
16C#\	.	.	.
16E#\	.	.	.
16B\	.	.	.
16E#\	8b\)) 8bb	.	.
16C#\JJ	.	.	.
16AA#\LL	((4b^\ 4bb	.	.
16D#\	.	.	.
16F#\	.	.	.
16B#X\	.	.	.
16F#\	8b#X\)) 8bb#X	.	[[
16D#\JJ	.	.	.
*	*Xped	*	*
=125	=125	=125	=125
*	*ped	*	*
16AA#\LL	[4.cc#\ [4.ccc#	.	.
16C#\	.	.	.
16F#\	.	.	.
16A#\	.	.	.
16c#\	.	.	.
16f#\JJ	.	.	.
16a#\LL	8cc#\L] 8ccc#]	.	.
16f#\	.	.	.
16c#\	8b#X\ 8bb#X	.	.
16A#\	.	.	.
16F#\	8cc#\J 8ccc#	.	.
16C#\JJ	.	.	.
*	*Xped	*	*
=126	=126	=126	=126
*	*ped	*	*
16AA#\LL	4.ee#^<\ 4.eee#	.	f
16D#\	.	.	.
16F##X\	.	.	.
16c#\	.	.	.
16d#>\	.	.	.
16f##X>\JJ	.	.	.
16cc#>\LL	4.dd#/ 4.ddd#	.	.
16f##>\	.	.	.
16d#>\	.	.	.
16c#\	.	.	.
16F##\	.	.	.
16D#\JJ	.	.	.
*	*Xped	*	*
=127	=127	=127	=127
*	*ped	*	*
16GG#\LL	4ee#\ 4eee#	.	.
16D#\	.	.	.
16G#\	.	.	.
16B\	.	.	.
16d#\	8dd#\ 8ddd#	.	.
16g#\JJ	.	.	.
*	*8va	*	*
16b\LL	4bb\ 4bbb	.	ff
16g#\	.	.	.
16d#\	.	.	.
16B\	.	.	.
16G#\	16aa#\LL 16aaa#	.	.
16D#\JJ	16bb\JJ 16bbb	.	.
*	*Xped	*	*
!!LO:LB:g=original	!	!
=128	=128	=128	=128
*^	*	*	*
*ped	*	*	*	*
!	!	!LO:TX:b:B:t=disperato	!	!
16BB^</LL	4BB\	16ddd#^/LL 16dddd#	.	.
16D#^</	.	16ccc##X^/ 16cccc##X	.	.
16G#^</	.	16eee#^/ 16eeee#	.	.
16B^</	.	16ddd#^/ 16dddd#	.	.
!	!	!LO:TX:t=P:problem:kasowniki obok krzyżyków	!	!
16d#^/	2ryy	16ccc#X^/ 16cccc#X	.	.
16g#^/JJ	.	16bb^/JJ 16bbb	.	.
!	!	!LO:TUP:b	!	!
16b^/LL	.	40aa#^/LLL 40aaa#	.	.
.	.	40bb^/ 40bbb	.	.
.	.	40aa#^/ 40aaa#	.	.
16g#^/	.	.	.	.
.	.	40gg##X^/ 40ggg##X	.	.
.	.	40aa#^/JJJ 40aaa#	.	.
!	!	!LO:TUP:b:problem:klamra łukowa	!	!
16d#^/	.	24ccc#^/LL 24cccc#	.	.
.	.	24bb^/ 24bbb	.	.
16B^/	.	.	.	.
.	.	24dd#^/JJ 24ddd#	.	.
16G#^/	.	16.aa#;^/LL 16.aaa#	.	.
16BB^;/JJ	.	.	.	.
.	.	32gg##^/JJk 32ggg##	.	.
*Xped	*	*	*	*
*v	*v	*	*	*
=129	=129	=129	=129
*ped	*	*	*
16CC#/LL	((4gg#/ 4ggg#	.	fff
16FF#/	.	.	.
16AA#/	.	.	.
16C#/	.	.	.
16F#/	8ggn/)) 8gggn	.	.
16A#/JJ	.	.	.
16c#/LL	16ff#/LL 16fff#	.	.
*	*X8va	*	*
16C#/ 16F# 16A#	16a#^/ 16aa#	.	.
16c#/	16b^/ 16bb	.	.
16C#/ 16F# 16A#	16b#X^/ 16bb#X	.	.
16c#/	16cc#^/ 16ccc#	.	.
16C#/JJ 16F# 16A#	16cc##X^/JJ 16ccc##X	.	.
*Xped	*	*	*
=130	=130	=130	=130
*ped	*	*	*
16CC#/LL	8.ee#^/L 8.eee#	.	.
16GG#/	.	.	.
16C#/	.	.	.
!	!LO:TX:b:B:t=pesante	!	!
16E#/	16dd#^/L 16ddd#	.	.
16G#/	16cc#^/ 16ccc#	.	.
16c#/JJ	16b^/JJ 16bb	.	.
8e#/	16a#^/LL 16aa#	.	.
.	16b^/ 16bb	.	.
*Xped	*	*	*
8CC#/L 8C#	16B#X^/ 16b#X	.	.
.	16c#^/ 16cc#	.	.
16.C#;</L 16.E# 16.c#	16.g#^;/ 16.gg#	.	.
32C#/JJk 32E# 32c#	32a#^/JJk 32aa#	.	.
!!LO:PB:g=original	!	!
=131	=131	=131	=131
*	*^	*	*
*	*ped	*	*	*
16FF#\LL	8f#/ 8ff#	4.cc#\	.	<
16C#\	.	.	.	.
16F#\	8rgg	.	.	.
16A#\	.	.	.	.
16c#\	8rgg	.	.	.
16f#\JJ	.	.	.	.
16a#\LL	4rgg	[4.dd#\	.	[
16f#\	.	.	.	.
16c#\	.	.	.	.
16A#\	.	.	.	.
16F#\	8rgg	.	.	.
16C#\JJ	.	.	.	.
*	*Xped	*	*	*
=132	=132	=132	=132	=132
*	*ped	*	*	*
16FF#\LL	2.rdd	4dd#\]	.	>
16C#\	.	.	.	.
16F#\	.	.	.	.
16A#\	.	.	.	.
16c#\	.	8cc#\	.	.
16f#\JJ	.	.	.	.
16a#\LL	.	8f#\L	.	] <
16f#\	.	.	.	.
16c#\	.	8g#\	.	.
16A#\	.	.	.	.
16F#\	.	8a#\J	.	.
16C#\JJ	.	.	.	[[
*	*Xped	*	*	*
=133	=133	=133	=133	=133
*	*ped	*	*	*
16FF#\LL	8rgg	2.a#^^>\	.	.
16Dn\	.	.	.	.
16E#\	8cc##X/L	.	.	.
16B\	.	.	.	.
16d#>\	8dd#/J	.	.	.
16e#>\JJ	.	.	.	.
!	!	!	!	!LO:DY:a
16b>\LL	8ee#/L	.	.	pp
16e#>\	.	.	.	.
!	!	!	!	!LO:HP:a
16d#>\	8ff#/	.	.	<
16B\	.	.	.	.
16E#\	8ff##X/J	.	.	.
16D\JJ	.	.	.	.
*	*Xped	*	*	*
=134	=134	=134	=134	=134
*	*ped	*	*	*
16FF#\LL	8gg#/L	2.g#^^>\	.	.
16C#\	.	.	.	.
16E#\	8gg##X/	.	.	.
16B\	.	.	.	.
16c#>\	8aa#/J	.	.	.
16e#>\JJ	.	.	.	.
16b>\LL	8bb/L	.	.	.
16e#>\	.	.	.	.
16c#>\	8bb#X/	.	.	.
16B\	.	.	.	.
16E#\	8ccc#/J	.	.	.
16C#\JJ	.	.	.	.
*	*v	*v	*	*
*	*Xped	*	*
!!LO:LB:g=original	!	!
=135	=135	=135	=135
*k[f#c#g#]	*k[f#c#g#]	*	*
*	*^	*	*
*	*ped	*	*	*
16FF#\LL	8ccc#/	4.cc#\	.	[ <
16C#\	.	.	.	.
16F#\	8rgg	.	.	.
16A\	.	.	.	.
16c#\	8rgg	.	.	[
16f#\JJ	.	.	.	.
16a\LL	4rgg	[4.dd\	.	.
16f#\	.	.	.	.
16c#\	.	.	.	.
16A\	.	.	.	.
16F#\	8rgg	.	.	.
16C#\JJ	.	.	.	.
*	*Xped	*	*	*
=136	=136	=136	=136	=136
*	*ped	*	*	*
16FF#\LL	2.rdd	4dd\]	.	>
16C#\	.	.	.	.
16F#\	.	.	.	.
16A\	.	.	.	.
16c#\	.	8cc#\	.	]
16f#\JJ	.	.	.	.
16a\LL	.	8f#\L	.	.
16f#\	.	.	.	.
16c#\	.	8.g#\	.	.
16A\	.	.	.	.
16F#\	.	.	.	.
16C#\JJ	.	16a\Jk	.	.
*	*Xped	*	*	*
=137	=137	=137	=137	=137
*	*ped	*	*	*
!	!	!	!	!LO:DY:a
16FF#\LL	8ree	2.a^^>\	.	pp
16D\	.	.	.	.
!	!	!	!	!LO:HP:a
16E#X\	8cc#/L	.	.	<
16B\	.	.	.	.
16d>\	8dd/J	.	.	.
16e#X>\JJ	.	.	.	.
16b>\LL	8dd#X/L	.	.	.
16e#>\	.	.	.	.
16d>\	8ee/	.	.	.
16B\	.	.	.	.
16E#\	8ee#X/J	.	.	.
16D\JJ	.	.	.	.
*	*Xped	*	*	*
=138	=138	=138	=138	=138
*	*ped	*	*	*
16FF#\LL	8ff#/L	2.g#^^>\	.	.
16C#\	.	.	.	.
16E#X\	8gg#/	.	.	.
16B\	.	.	.	.
16c#>\	8aa/J	.	.	.
16e#>\JJ	.	.	.	.
16b>\LL	8aa#X/L	.	.	.
16e#>\	.	.	.	.
16c#>\	8bb/	.	.	.
16B\	.	.	.	.
16E#\	8ccc#/J	.	.	.
16C#\JJ	.	.	.	[[
*	*Xped	*	*	*
!!LO:LB:g=original	!	!	!
=139	=139	=139	=139	=139
*	*ped	*	*	*
16FF#\LL	8aa/	4.cc#\	.	.
16C#\	.	.	.	.
16F#\	8rgg	.	.	.
16A\	.	.	.	.
16c#>\	8rgg	.	.	.
16f#>\JJ	.	.	.	.
16a>\LL	8rgg	[4.dd^>\	.	.
16f#>\	.	.	.	.
!	!	!	!	!LO:HP:a
16c#>\	8ee#X/L	.	.	<
16A\	.	.	.	.
16F#\	8ff#/J	.	.	.
16C#\JJ	.	.	.	.
*	*Xped	*	*	*
=140	=140	=140	=140	=140
*	*ped	*	*	*
16FF#\LL	8gg#/L	4dd\]	.	.
16C#\	.	.	.	.
16E#X\	8aa/	.	.	.
16B\	.	.	.	.
16c#\	8bb/J	8cc#\	.	.
16e#X\JJ	.	.	.	.
16b\LL	4ccc#/	8g#\L	.	[ <
16e#\	.	.	.	.
16c#\	.	8a\	.	.
16B\	.	.	.	.
16E#\	8ryy	8b\J	.	.
16C#\JJ	.	.	.	[[
*	*Xped	*	*	*
=141	=141	=141	=141	=141
*	*ped	*	*	*
!	!LO:TX:b:B:t=sempre più	!	!	!
16FF#\LL	4rgg	4.cc#\	.	.
16C#\	.	.	.	.
16F#\	.	.	.	.
16A\	.	.	.	.
16c#\	8rgg	.	.	.
16f#\JJ	.	.	.	.
16a\LL	8rgg	[4.dd\	.	.
16f#\	.	.	.	.
16c#\	8ee#X/L	.	.	.
16A\	.	.	.	.
16F#\	8ff#/J	.	.	.
16C#\JJ	.	.	.	.
*	*Xped	*	*	*
=142	=142	=142	=142	=142
*	*ped	*	*	*
16FF#\LL	8gg#/L	4dd\]	.	pp
16C#\	.	.	.	.
16E#X\	8aa/	.	.	.
16B\	.	.	.	.
16c#\	8bb/J	8cc#^^>\	.	.
16e#X\JJ	.	.	.	.
16b\LL	4.ccc#/	8g#^^>\L	.	<
16e#\	.	.	.	.
16c#\	.	8a^^>\	.	.
16B\	.	.	.	.
16E#\	.	8b^^>\J	.	.
16C#\JJ	.	.	.	.
*	*Xped	*	*	*
!!LO:LB:g=original	!	!	!
=143	=143	=143	=143	=143
*	*ped	*	*	*
16FF#\LL	4r	4.cc#\ 4.ccc#	.	[
16C#\	.	.	.	.
16F#\	.	.	.	.
16A\	.	.	.	.
16c#\	8rgg	.	.	.
16f#\JJ	.	.	.	.
*	*v	*v	*	*
*	*8va	*	*
*	*^	*	*
16a\LL	8rgg	[4.ddd\	.	.
16f#\	.	.	.	.
16c#\	8eee#X/L	.	.	.
16A\	.	.	.	.
16F#\	8fff#/J	.	.	.
16C#\JJ	.	.	.	.
*	*Xped	*	*	*
=144	=144	=144	=144	=144
*	*ped	*	*	*
16FF#\LL	8ggg#/L	4ddd\]	.	.
16C#\	.	.	.	.
16E#X\	8aaa/	.	.	.
16B\	.	.	.	.
16c#\	8bbb/J	8ccc#\	.	.
16e#X\JJ	.	.	.	.
16b\LL	4.cccc#/	8gg#\L	.	<
16e#\	.	.	.	.
16c#\	.	8aa\	.	.
16B\	.	.	.	.
16E#\	.	8bb\J	.	.
16C#\JJ	.	.	.	[[
*	*v	*v	*	*
*	*Xped	*	*
=145	=145	=145	=145
*	*ped	*	*
16FF#\LL	4.ccc#\	.	.
16C#\	.	.	.
16F#\	.	.	.
16A\	.	.	.
16c#\	.	.	.
16f#\JJ	.	.	.
16a\LL	[4.ddd\	.	.
16f#\	.	.	.
16c#\	.	.	.
16A\	.	.	.
16F#\	.	.	.
16C#\JJ	.	.	.
=146	=146	=146	=146
!	!LO:TX:b:t=Per_den_do_si:dur=2q13e:ext=ud:problem:text with extention lines	!	!
16FF#\LL	4ddd\]	.	.
16C#\	.	.	.
16F#\	.	.	.
16A\	.	.	.
16c#\	8ccc#\	.	.
16f#\JJ	.	.	.
16a\LL	4dddd\	.	>
16f#\	.	.	.
16c#\	.	.	.
16A\	.	.	.
*	*Xped	*	*
16c#\	8cccc#\	.	]]
16f#\JJ	.	.	.
*	*X8va	*	*
!!LO:LB:g=original	!	!
=147	=147	=147	=147
*ped	*	*	*
*clefG2	*	*	*
16a\LL	(8ddd\L	1	.
16cc#\	.	.	.
16ff#\	8ccc#\	4	.
16aa\	.	.	.
16ff#\	8ddd\J	5	.
16cc#\JJ	.	.	.
*clefF4	*	*	*
16a\LL	8ccc#\L	.	.
16f#\	.	.	.
16c#\	8dd\	1	.
16F#\	.	.	.
16c#\	8cc#\J	4	.
16f#\JJ	.	.	.
=148	=148	=148	=148
16a\LL	8dd\L	.	.
16f#\	.	.	.
16c#\	8cc#\	.	.
16A\	.	.	.
16F#\	8d\J	1	.
16C#\JJ	.	.	.
*	*	*below	*
16FF#\LL	8c#/L	2	.
16C#\	.	.	.
16F#\	8d/	.	.
16A\	.	.	.
16F#\	8c#/J)	.	.
16C#\JJ	.	.	.
*Xped	*	*	*
=149	=149	=149	=149
4.FF#/	16c#/LL	.	pp
.	16a/	.	.
.	16c#/	.	.
.	16a/	.	.
.	16c#/	.	.
.	16a/JJ	.	.
4.FFF#/	16c#/LL	.	.
.	16a/	.	.
.	16c#/	.	.
.	16a/	.	.
.	16c#/	.	.
.	16a/JJ	.	.
=150	=150	=150	=150
2.r	16A/LL	.	.
.	16f#/	.	.
.	16A/	.	.
.	16f#/	.	.
.	16A/	.	.
.	16f#/JJ	.	.
.	16A/LL	.	.
.	16f#/	.	.
.	16A/	.	.
.	16f#/	.	.
.	16A/	.	.
.	16f#/JJ	.	.
=151	=151	=151	=151
4.C#\	16F#</LL	.	.
.	16A</	.	.
.	16F#</	.	.
.	16A</	.	.
.	16F#</	.	.
.	16A</JJ	.	.
[4.D^\	16F#</LL	.	.
.	16A</	.	.
.	16F#</	.	.
.	16A</	.	.
.	16F#</	.	.
.	16A</JJ	.	.
=152	=152	=152	=152
4D\]	16F#</LL	.	.
.	16A</	.	.
.	16F#</	.	.
.	16A</	.	.
8C#\	16F#</	.	.
.	16A</JJ	.	.
!	!LO:TX:a:B:t=rall&colon;	!	!
8FF#\L	16F#</LL	.	.
.	16A</	.	.
8GG#\	16F#</	.	.
.	16A</	.	.
8AA\J	16F#</	.	.
.	[16A</JJ	.	.
!	!LO:TX:a:B:t=Presto	!	!
=153||	=153||	=153||	=153||
4FFF#/	4F<#/ 4A<] 4c#<	.	.
8r	8rG<	.	.
*clefG2	*8va	*	*
*ped	*	*	*
[4.d/ [4.dd	[>4.ddd\ [4.dddd	.	fff
=154	=154	=154	=154
4d/] 4dd]	4ddd\] 4dddd]	.	.
8c#/ 8cc#	8ccc#\ 8cccc#	.	.
8F#/L 8f#	8ff#\L 8fff#	.	.
8G#/ 8g#	8gg#\ 8ggg#	.	.
8A/J 8a	8aa\J 8aaa	.	.
*clefF4	*X8va	*	*
=155	=155	=155	=155
!	!LO:TX:B:a:t=loco	!	!
8C#\L 8c#	8cc#\L 8ccc#	.	.
8E#X\ 8e#X	8ee#X\ 8eee#X	.	.
8F#\J 8f#	8ff#\J 8fff#	.	.
8AA\L 8A	8a\L 8aa	.	.
8BB#X\ 8B#X	8b#X\ 8bb#X	.	.
8C#\J 8c#	8cc#\J 8ccc#	.	.
=156	=156	=156	=156
8FF#/L 8F#	8f#\L 8ff#	.	.
8GG#/ 8G#	8g#\ 8gg#	.	.
8AA/J 8A	8a\J 8aa	.	.
8FF#/L 8F#	8f#\L 8ff#	.	.
8AAA/ 8AA	8A\ 8a	.	.
8CC#/J 8C#	8c#\J 8cc#	.	.
=157	=157	=157	=157
4.FFF#/ 4.FF#	4.F#/ 4.f#	.	.
*Xped	*	*	*
4r	4r	.	.
8r	8r	.	.
=158	=158	=158	=158
4.f#>\ 4.a> 4.cc#> 4.ff#>	4.aa/ 4.ccc# 4.fff# 4.aaa	.	.
*ped	*	*	*
4r	4r	.	.
8r	8r	.	.
=159	=159	=159	=159
2.FFF#;<\ 2.FF#	2.F#<;/	.	.
*Xped	*	*	*
==	==	==	==
*-	*-	*-	*-
!!!system-decoration: {(s1,s2)}
!!!RDF**kern: > = above
!!!RDF**kern: < = below
!!!ENC: Filip Voros
!!!END: 2022-08-02
!!!ENC: Natalia Wrzos
!!!END: 2022-09-07!!!YEC: Copyright 2022 Narodowy Instytut Fryderyka Chopina (https://polishscores.org)
!!!YEM: License CC-BY-4.0 (https://creativecommons.org/licenses/by/4.0)
